X: 26793
T: Miller Of Perth
R: three-two
M: 3/2
K: Gmajor
D3G G2A2B2d2|e2c2A2G2FGA2|D3G G2A2B2d2|e2c2A2F2G4:|
|:e3de2f2g2e2|a3ba2gwf2d2|e3de3f2g2a2|f2d2e2^c2d4|
g2e2e2c2B2d2|e2c2A2G2FGA2|D3G G2A2B2d2|e2c2A2F2G4|

